X: 133029
T: The SAILOR'S WIFE
Q: "Scotch Jig."
R: Jig.
%R: jig
B: James Kerr "Merry Melodies" v.1 p.33 s.0 #29
Z: 2016 John Chambers <jc:trillian.mit.edu>
M: 6/8
L: 1/8
K: Em
uF |\
EFE uG2uE | ve2vf ug2ua | bag fed  | BdB AFD |\
EFG F2E   | e2f   g2a   | bag fe^d | e3  E2 :|
|: uf |\
vgab gab  | gab   bag   | fda fda  | fda agf |\
gab  bag  | fga   agf   | efg fe^d | e3  e2 :|

%%sep 1 1 500
%%sep 1 1 500

